X: 08034
T: EILEEN O'CONNOR
C: Bob McQuillen 14 Apr 91
B: Bob's Note Book 8 #34
%R: reel
Z: 2021 John Chambers <jc:trillian.mit.edu>
M: C
L: 1/8
K: D
AB \
| defd edBd | ABdB AFDE | FAdA FAdB | Adfd e2AB |\
| defd edBd | ABdB AFDE | FAdA GBdB | Acec d2 :|
|: fe \
| dfaf gfef | d2fd edBA | gbag fagf | edcB A2fe |\
| dfaf gfef | d2fd edBA | gbag fded | Addc d2 :|
%%begintext align
%% If you get
%% into the dance scene in Seattle you
%% will meet a whole lot of nice people, and
%% Eileen is one of them. She loves to dance and
%% she's a real find concertina player. I hope this
%% tune sounds OK on your litle squeezer, Eileen!
%%endtext
